X:1
T:Title
%%score 1 2 ( 3 4 ) 5
L:1/8
M:4/2
K:C
V:1 treble nm="Part_1"
V:2 treble-8 nm="Part_2"
V:3 treble-8 nm="Part_3"
V:4 treble-8 
V:5 bass nm="Part_4"
V:1
 G16 | A8 A8 | B4 B4 B4 B4 | c4 B2 A2 G4 c4 | B2!mp! A4 G2 F6 E2 | G8 z4 D4 | E8 E8 | D12 D4 | %8
 E6 F2 G4 c4 | B6 c2 d4 e4- | e2 c2 c8 B4 | c8 z4 G4 | (3:2:2c8 B4 A4 G2 F2 | E16 | z8 z8 | %15
 D8 E4 E4 | D8 C8 | G4 F2 E2 D8 | C8 z4 G4 | A4 c4 B4 G4 | A6 GF E4 D4- | (D4 G8) F4 | G8 z4 A4 | %23
 B8 c8 | d8 z4 e4 | f6 e2 (d8 | c8) z4 f4 | e4 c4 d4 c2 d2 | e4 d2 e2 f6 e2 | d2 c2 c8 B4 | c16 |] %31
V:2
 g16 | f16 | g8 d4 d4 | c6 d2 e6 c2 | d4 c2 B2 A8 | G16- | G8 z4 c4 | B16 | c8 z4 c4 | %9
 d6 e2 f4 (3:2:1g6- | (3:2:2g2 f4 e4 d8 | c16 | z4 e4 f4 e2 d2 | c16- | c8 z8 | z8 c8 | %16
 B4 B4 c4 c4 | (3:2:2G8 A4 B8 | c4 e8 c4 | f4 e4 g4 c4 | f6 ed c4 B4 | (G8 A8) | (G8 c8) | %23
 z4 d4 (e8 | f8) c8 | z4 d4 f8 | (e8 d8) | z4 e4 (f8 | g8) c8 | z4 e4 d8 | c16 |] %31
V:3
 d16 | d16 | d8 z4 g4 | e6 f2 g8 | G2 D2 F2 G2 A4 d4 | B6 c2 d4 B4 | c16 | G16 | z8 c4 e4 | %9
 d6 c2 B2 A2 G4 | z4 g4 g4 g4 | g8 e4 e4 | (c8 (F8) | G16) | z8 c8 | B4 B4 c8 | z4 G4 G4 G4 | %17
 E6 F2 G8 | z4 c8 e4 | d4 c4 d4 e4 | (A12 B4-) | B4 c4 d8 | d4 B4 A8 | (d8 c8) | z8 e8 | %25
 (d8 (3:2:2A8) B4 | c2 d2 e4 f8 | g8 d8 | c8 z8 | g12 g4 | g8 g8 |] %31
V:4
 x16 | x16 | x16 | x16 | x16 | x16 | x16 | x16 | x16 | x16 | x16 | x16 | x16 | x16 | x16 | x16 | %16
 x16 | x16 | x16 | x16 | x16 | x16 | x16 | x16 | x16 | x16 | x16 | x16 | x16 | x16 | x8 e8 |] %31
V:5
 G,16 | D,16 | G,16 | C,16 | z8 D,8 | E,4 C,4 G,8 | C,16 | G,8 G,4 G,4 | C,16 | G,6 E,2 F,4 C,4- | %10
w: przecelse||||trinitatis|||oracula * *||miracula * * *|
 C,2 D,2 E,2 F,2 G,8 | z4 C,4 C,8- | C,8 z8 | C,16 | z8 C8 | G,4 G,4 C,4 C,4 | G,8 C,8- | %17
w: * * * imagi *|||||* specula * *||
 C,8 z4 G,4 | C,16 | z4 C,4 G,4 z4 | D,8 z4 G,4- | G,4 E,4 D,8 | z4 E,4 F,8 | D,4 G,4 C,8 | %24
w: lu.cent *||crea- *|||tis *||
 z4 B,,4 C,8 | D,4 G,4 F,8 | z4 C,4 D,8 | (C,8 B,,8) | z4 C,4 (D,8 | (3:2:2E,8) F,4 G,8 | C,16 |] %31
w: |||Barbigant- trSf),|ISOv\-ISIr *|||

